style-guide/assets/xd-icons-home.svg

<?xml version="1.0" encoding="UTF-8"?>
<svg width="24px" height="24px" viewBox="0 0 24 24" version="1.1" xmlns="http://www.w3.org/2000/svg" xmlns:xlink="http://www.w3.org/1999/xlink">
    <!-- Generator: Sketch 51.3 (57544) - http://www.bohemiancoding.com/sketch -->
    <title>home</title>
    <desc>Created with Sketch.</desc>
    <defs>
        <path d="M16,21.00025 L20,21.00025 L20,11.41425 L12,3.41425 L4,11.41425 L4,21.00025 L8,21.00025 L8,16.00025 C8,13.79525 9.794,12.00025 12,12.00025 C14.206,12.00025 16,13.79525 16,16.00025 L16,21.00025 Z M21,23.00025 L15,23.00025 C14.448,23.00025 14,22.55325 14,22.00025 L14,16.00025 C14,14.89625 13.103,14.00025 12,14.00025 C10.897,14.00025 10,14.89625 10,16.00025 L10,22.00025 C10,22.55325 9.552,23.00025 9,23.00025 L3,23.00025 C2.448,23.00025 2,22.55325 2,22.00025 L2,11.00025 C2,10.73425 2.105,10.48025 2.293,10.29325 L11.293,1.29325 C11.684,0.90225 12.316,0.90225 12.707,1.29325 L21.707,10.29325 C21.895,10.48025 22,10.73425 22,11.00025 L22,22.00025 C22,22.55325 21.552,23.00025 21,23.00025 Z" id="path-1"></path>
    </defs>
    <g id="home" stroke="none" stroke-width="1" fill="none" fill-rule="evenodd">
        <mask id="mask-2" fill="white">
            <use xlink:href="#path-1"></use>
        </mask>
        <use id="icons/24px/Home" fill="#000000" xlink:href="#path-1"></use>
    </g>
</svg>

<svg viewBox="0 0 24 24" xmlns="http://www.w3.org/2000/svg" xmlns:xlink="http://www.w3.org/1999/xlink">
  <path d="M16 21h4v-9.586l-8-8-8 8V21h4v-5c0-2.205 1.794-4 4-4s4 1.795 4 4v5zm5 2h-6a1 1 0 0 1-1-1v-6c0-1.104-.897-2-2-2s-2 .896-2 2v6a1 1 0 0 1-1 1H3a1 1 0 0 1-1-1V11c0-.266.105-.52.293-.707l9-9a.999.999 0 0 1 1.414 0l9 9A.996.996 0 0 1 22 11v11a1 1 0 0 1-1 1z"/>
</svg>
